src/assets/Icons/hide copy.svg

<svg width="20" height="16" viewBox="0 0 20 16" fill="none" xmlns="http://www.w3.org/2000/svg">
<path d="M13.9081 12.2262C13.8846 12.1957 13.8585 12.1674 13.83 12.1416L13.6022 11.8751L12.7464 10.8998L8.49005 6.02346C8.46073 5.99851 8.43451 5.97013 8.41195 5.93894L7.50732 4.90516L6.65149 3.92989L6.21219 3.41625L6.18941 3.38699L6.13734 3.32848L3.46899 0.269394C3.41598 0.196096 3.34824 0.134652 3.27012 0.0889878C3.19199 0.0433233 3.10518 0.0144427 3.01525 0.00419139C2.92531 -0.00605997 2.83423 0.00254334 2.74781 0.0294516C2.66139 0.0563598 2.58154 0.100981 2.51336 0.160465C2.44519 0.219948 2.39018 0.292986 2.35186 0.37491C2.31353 0.456835 2.29274 0.545845 2.2908 0.636253C2.28886 0.726661 2.30582 0.816479 2.3406 0.899968C2.37537 0.983457 2.4272 1.05878 2.49277 1.12113L4.6665 3.6113C2.81492 4.7101 1.46122 6.1795 0.530549 7.18728C0.41991 7.30756 0.319034 7.42134 0.20514 7.51237L0.175854 7.54163L0.146567 7.57738C0.130685 7.59438 0.116516 7.61289 0.104264 7.63265C0.0837185 7.6645 0.0662833 7.69825 0.0521983 7.73343C0.0362406 7.77362 0.0231908 7.8149 0.0131492 7.85696C-0.00438306 7.94277 -0.00438306 8.03123 0.0131492 8.11703C0.0231908 8.15909 0.0362406 8.20037 0.0521983 8.24057C0.0662833 8.27575 0.0837185 8.30949 0.104264 8.34134C0.116516 8.36111 0.130685 8.37962 0.146567 8.39661L0.175854 8.43237L0.20514 8.46163C0.302763 8.56565 0.406894 8.67618 0.530549 8.78671C2.1641 10.6007 5.21644 13.9036 10.0032 13.9036C11.086 13.9036 12.1618 13.729 13.189 13.3867L15.2358 15.7306C15.2888 15.8039 15.3565 15.8653 15.4347 15.911C15.5128 15.9567 15.5996 15.9856 15.6895 15.9958C15.7795 16.0061 15.8705 15.9975 15.957 15.9705C16.0434 15.9436 16.1232 15.899 16.1914 15.8395C16.2596 15.7801 16.3146 15.707 16.3529 15.6251C16.3912 15.5432 16.412 15.4542 16.414 15.3637C16.4159 15.2733 16.3989 15.1835 16.3642 15.1C16.3294 15.0165 16.2776 14.9412 16.212 14.8789L13.9081 12.2262ZM10.0032 13.2892C9.0231 13.2903 8.06198 13.0192 7.22714 12.5062C6.3923 11.9933 5.7166 11.2586 5.27545 10.3843C4.8343 9.50992 4.64507 8.53029 4.72889 7.55474C4.8127 6.57919 5.16627 5.6461 5.75011 4.85964L6.63197 5.87067C6.24867 6.47327 6.03458 7.16773 6.01212 7.88134C5.98966 8.59496 6.15965 9.30149 6.50429 9.92695C6.84893 10.5524 7.35556 11.0738 7.97111 11.4366C8.58667 11.7993 9.28853 11.9901 10.0032 11.9888C10.5732 11.9892 11.1363 11.8649 11.653 11.6247L12.2485 12.3074L12.5381 12.6325C11.7615 13.06 10.8899 13.2858 10.0032 13.2892ZM14.4223 10.8738L14.3832 10.9258C14.399 10.9108 14.4122 10.8932 14.4223 10.8738ZM12.818 7.05724C12.9056 6.95434 12.9589 6.82673 12.9706 6.69215C12.9822 6.55757 12.9517 6.42271 12.8831 6.30629C12.6594 5.92568 12.3615 5.59378 12.0072 5.33021C11.6528 5.06665 11.2491 4.87679 10.82 4.77187C10.2588 4.62564 9.66949 4.62564 9.10833 4.77187L8.64299 4.23873C9.07918 4.08244 9.53984 4.00538 10.0032 4.01116C10.0563 4.00791 10.1096 4.00791 10.1627 4.01116C11.194 4.05153 12.1695 4.48964 12.8844 5.23345C13.5992 5.97726 13.9976 6.96888 13.996 8C13.996 8.12812 13.9895 8.25616 13.9764 8.38361C13.9309 8.89949 13.7803 9.40062 13.5339 9.85626L10.1431 5.97145C10.4748 5.99427 10.7961 6.09697 11.0794 6.27076C11.3627 6.44456 11.5997 6.68428 11.7702 6.96947C11.8582 7.11775 12.0016 7.22502 12.1688 7.26769C12.336 7.31036 12.5133 7.28495 12.6618 7.19703C12.7221 7.1605 12.775 7.1131 12.818 7.05724ZM19.9965 8C20.0012 8.04322 20.0012 8.08682 19.9965 8.13004C19.9865 8.17209 19.9734 8.21338 19.9575 8.25357C19.9434 8.28875 19.9259 8.3225 19.9054 8.35435C19.8931 8.37411 19.879 8.39262 19.8631 8.40961L19.8338 8.44537L19.8045 8.47463L19.5084 8.79972C18.6487 9.77251 17.7069 10.6698 16.6936 11.4817C16.3452 11.7494 15.9823 11.9979 15.6067 12.2262L14.7379 11.2509L14.4353 10.9063C14.6968 10.5093 14.9027 10.0783 15.047 9.62544C15.3248 8.75831 15.3739 7.83425 15.1897 6.9426C15.0055 6.05095 14.5941 5.22185 13.9954 4.53545C13.3966 3.84906 12.6308 3.32857 11.7718 3.02431C10.9129 2.72005 9.98988 2.6423 9.09206 2.79858C8.62335 2.87845 8.16856 3.02515 7.74161 3.2342L7.14286 2.54501C7.61054 2.39408 8.09081 2.28528 8.57791 2.21993C9.04933 2.14386 9.52571 2.10257 10.0032 2.09639C14.79 2.09639 17.8423 5.39929 19.4824 7.18728C19.5898 7.31081 19.6939 7.42134 19.7915 7.51237C19.8136 7.53161 19.8332 7.55344 19.8501 7.57738C19.866 7.59438 19.8801 7.61289 19.8924 7.63265V7.6489C19.9084 7.67607 19.9226 7.70431 19.9347 7.73343C19.9511 7.77345 19.9642 7.81477 19.9737 7.85696C19.9872 7.90352 19.9948 7.95157 19.9965 8Z" fill="black" fill-opacity="0.7"/>
</svg>

<svg width="20" height="16" fill="none" xmlns="http://www.w3.org/2000/svg"><path d="M13.908 12.226a.645.645 0 0 0-.078-.084l-.228-.267-.856-.975L8.49 6.023a.482.482 0 0 1-.078-.084l-.905-1.034-.856-.975-.439-.514-.023-.029-.052-.059L3.47.27a.65.65 0 1 0-.976.852l2.174 2.49C2.814 4.711 1.46 6.18.53 7.187c-.111.12-.212.234-.326.325l-.03.03-.028.035a.591.591 0 0 0-.094.156.65.65 0 0 0 .094.663l.029.036.03.03c.097.104.2.214.325.325 1.633 1.814 4.685 5.117 9.472 5.117 1.083 0 2.159-.175 3.186-.517l2.047 2.344a.65.65 0 1 0 .976-.852l-2.304-2.653Zm-3.905 1.063a5.291 5.291 0 0 1-4.728-2.905A5.278 5.278 0 0 1 5.75 4.86l.882 1.01a3.98 3.98 0 0 0 1.34 5.567 3.989 3.989 0 0 0 2.031.552c.57 0 1.133-.124 1.65-.364l.595.682.29.325a5.299 5.299 0 0 1-2.535.657Zm4.42-2.415-.04.052a.197.197 0 0 0 .04-.052Zm-1.605-3.817a.65.65 0 0 0 .065-.75 3.302 3.302 0 0 0-2.063-1.535 3.394 3.394 0 0 0-1.712 0l-.465-.533a3.889 3.889 0 0 1 1.36-.228c.053-.003.107-.003.16 0A3.992 3.992 0 0 1 13.996 8c0 .128-.007.256-.02.384a3.797 3.797 0 0 1-.442 1.472l-3.39-3.885a2.061 2.061 0 0 1 1.626.998.65.65 0 0 0 .892.228.57.57 0 0 0 .156-.14ZM19.997 8a.601.601 0 0 1 0 .13.905.905 0 0 1-.04.124.596.596 0 0 1-.094.156l-.03.035-.028.03-.297.325c-.86.973-1.801 1.87-2.814 2.682-.349.267-.712.516-1.087.744l-.87-.975-.302-.345a5.287 5.287 0 0 0-2.663-7.882 5.302 5.302 0 0 0-2.68-.225 4.97 4.97 0 0 0-1.35.435l-.6-.689a8.24 8.24 0 0 1 1.436-.325 9.738 9.738 0 0 1 1.425-.124c4.787 0 7.84 3.303 9.48 5.091.107.124.21.234.308.325.023.02.042.041.06.065.015.017.03.036.041.056v.016a.684.684 0 0 1 .082.208.588.588 0 0 1 .023.143Z" fill="#000" fill-opacity=".7"/></svg>
